korla/apps/symbolic/setroubleshoot_icon-symbolic.svg

<svg style="clip-rule:evenodd;fill-rule:evenodd;stroke-linejoin:round;stroke-miterlimit:2" version="1.1" viewBox="0 0 16 16" xmlns="http://www.w3.org/2000/svg">
 <path d="m5 2v1h2v1h-1.5l-2.5 2.5v1.5h-1v-2h-1v6h1v-2h1v1c0 1 1 1 1 1h2l1 1h5s1 0 1-1v-2h1v2h2v-7h-2v2h-1l-2 3.275v0.725h-3l-1-1h-2v-2.5l1.5-1.5h1.5v-4h-3z" style="fill:rgb(223,223,223)"/>
 <path d="m9 1v5h1v4l3-5h-1l1.5-4h-4.5z" style="fill-opacity:.5;fill:rgb(223,223,223)"/>
</svg>

<svg xmlns="http://www.w3.org/2000/svg" width="16" height="16" version="1.1">
 <path style="fill:#dfdfdf" d="M 9,1 V 6 H 10 V 10 L 13,5 H 12 L 13.5,1 Z M 5,2 V 3 H 7 V 4 H 5.5 L 3,6.5 V 8 H 2 V 6 H 1 V 12 H 2 V 10 H 3 V 11 C 3,12 4,12 4,12 H 6 L 7,13 H 12 C 12,13 13,13 13,12 V 10 H 14 V 12 H 16 V 5 H 14 V 7 H 13 L 11,10.275 V 11 H 8 L 7,10 H 5 V 7.5 L 6.5,6 H 8 V 2 Z"/>
</svg>
